!!!COM:	Tinctoris, Johannes
!!!CDT:	~1435///-1511//
!!!OTL:	Fecit potentiam
!!!AGN:	Motet
!!!SCT:	Tin2002
!!!SCA:	Tin2002
!!!voices:	2
**kern	**kern
*staff2	*staff1
*Ivox	*Ivox
*I"Tenor	*I"Superius
*I'T	*I'S
*clefG2	*clefG2
*k[]	*k[]
*M2/1	*M2/1
*met(C|)	*met(C|)
=1-	=1-
0r	1c
.	1d
=2	=2
1c	4c/
.	4d/
.	4e/
.	4c/
1d	1f
=3	=3
4c/	2g/
4d/	.
4e/	1a
4c/	.
1f	.
.	4g/
.	4f/
=4	=4
2g/	2e/
1a	1f
4g/	4e/
4f/	4d/
=5	=5
2e/	2c/
1f	1a
4e/	[2g/
4d/	.
=6	=6
2c/	4g/]
.	4f/
1a	4e/
.	4d/
.	1c
[2g/	.
=7	=7
4g/]	2.e/
4f/	.
4e/	.
4d/	4f/
2c/	2g/
[2e/	[2c/
=8	=8
4e/]	2c/]
4f/	.
2g/	1e
2c/	.
[2d/	[2f/
=9	=9
4d/]	4f/]
4A/	4c/
1c	2e/
.	1d
2B/	.
=10	=10
1c	1c
1r	1f
=11	=11
1c	2g/
.	1a
1f	.
.	4g/
.	4f/
=12	=12
1.g	1e
.	2e/
[2a/	[2f/
=13	=13
2a/]	2f/]
4g/	4e/
4f/	4d/
1e	1c
=14	=14
1d	1f
1r	1g
=15	=15
1f	1a
1g	1r
=16	=16
1a	1d
2r	2c/
[2f/	2d/
=17	=17
4f/]	2A/
4A/	.
2e/	1c
1d	.
.	2B/
=18	=18
1c	0c
1r	.
=19	=19
0r	0cc
=20	=20
1cc	0a
1cc	.
=21	=21
1a	0f
1a	.
=22	=22
1f	2d/
.	1f
1f	.
.	4e/
.	4d/
=23	=23
2e/	2c/
1f	1a
4e/	4g/
4d/	4f/
=24	=24
1c	1e
2d/	1d
[2a/	.
=25	=25
2a/]	4d/
.	4e/
4g/	4f/
4f/	4d/
1e	1g
=26	=26
1d	1a
1r	1d
=27	=27
0r	1dd
.	1cc
=28	=28
1dd	4b\
.	4a/
.	4g/
.	4f/
1cc	2e/
.	[2a/
=29	=29
1b	2a/]
.	2g/
2a/	1a
4g/	.
4f/	.
=30	=30
1e	1g
2.f/	2f/
.	4e/
4g/	4d/
=31	=31
1a	2c/
.	1f
1g	.
.	2e/
=32	=32
2f/	1f
4e/	.
4d/	.
1c	1e
=33	=33
1f	1d
2e/	2c/
[2e/	4B/
.	4A/
=34	=34
2e/]	2G/
4d/	1c
4c/	.
1d	.
.	2B/
=35	=35
0cl	0cl
==	==
*-	*-
!!!RDF**kern: l=long note in original notation
!!!ENC:	Chris Gage 01-15-2015
!!!END:	2015/02/21/
!!!EED:	Jesse Rodin
!!!EEV:	2015/03/21/
!!!ONB:	Translated from MusicXML and edited on 2015/03/21/ by Craig Sapp
!!muse2ps: C^@{COM}^i2I150v85,150Q16
